X:596
T:
S:Upptecknad ur minnet (påminner mig ej, av vem jag lärt den).
R:schottis
O:Gotland
M:2/4
L:1/16
K:D
fe|e2d2 d2fd|d2c2 c2 gf|g2c2 Agfe|e2d2 d2 fe |e2d2 d2fd|d2c2 c2 gf|g2ec
Agfe|d2d2 d2::f2|faaa afdf|egbb bged|cegg gece|dfaa afde|faaa afdf|egbb
bged|cege cAfe|d2d2d2:|

